!!!!SEGMENT: pl-sa--18-a-i-18--006_barcicki-jan--polonaisso-no-6.krn
!!!cenid: 18xx:337
!!!COM: Barcicki, Jan
!!!COM-rismid: pe41021407
!!!CDT: ~1750-<~1812
!!!CNT: Polish
!!!OTL: Polonaisso - No. 6
!!!PDT:
!!!AGN: Secular; Polonaise
!!!SMS-siglum: PL-SA
!!!SMS-shelfmark: 18/A I 18
!!!SMS-shelfwork: 006 W
!!!SMS-variant:
!!!SMS-altvar:
!!!NIFC-rismid: 1001065335
!!!URL-scan: http://bc.bdsandomierz.pl/dlibra/publication/1284/edition/1252/content
!!!ONB-nifc:
**kern	**kern	**dynam
*part1	*part1	*part1
*staff2	*staff1	*
*Ipiano	*Iempty	*
*I"Piano	*	*
*I'Pno.	*	*
*clefF4	*clefG2	*
*k[e-b-a-]	*k[e-b-a-]	*
*c:	*c:	*
*M3/4	*M3/4	*
*>[A,A,B,B,C,C,D,D]	*>[A,A,B,B,C,C,D,D]	*
*>A	*>A	*
=1	=1	=1
.	16qqcc/LL	.
.	16qqee-/JJ	.
!	!LO:TX:a:B:t=Pożegnanie	!
!	!LO:TX:a:rj:t=No&colon; 6to	!
!LO:TX:a:t=P:problem:mixed beam	!	!
8C/L	(4.gg\	f
8c\J	.	.
4C/	.	.
.	8ee-\L 8gg\	p
4r	8dd\ 8ff\	.
.	8cc\J) 8ee-\	.
=2	=2	=2
!LO:TX:a:t=P:problem:mixed beam	!	!
8C/L	8ee-\L 8gg\	f
8c\J	8ggt\J	.
4C/	4.dd\ 4.ff\	p
4r	.	.
.	8cc\ 8ee-\	.
=3	=3	=3
4GG/	8.bn\L 8.dd\	.
.	16cc\Jk 16ee-\	.
4BBn/	(16ff\LL	.
.	16gg\J)	.
.	8ggt\J	.
4GG/	(8.aa-\L	.
.	16gg\Jk)	.
=4	=4	=4
8r	8dd'\L 8ff\	.
8C/L	8cc'\J 8ee-\	.
8E-/	8.gg'\L	.
8C/	.	.
.	16ee-'\Jk	.
8G/	(8cc\L 8ee-\	.
!	!LO:SIC:o:s=:v:8bn	!
8GG/J	8b-\J) 8dd\	.
!!LO:LB:g=original
=5	=5	=5
16E-\LL	8e-/L 8ee-/	.
16B-\	.	.
!	!LO:SIC:o:s=:v:f=for	!
16G\	8ee-T/J	f
16B-\JJ	.	.
*rep	*	*
!	!LO:SIC:o:s=:v:znak powtórzenia grupy	!
16E-\LL	4.b-X\	.
16B-\	.	.
16G\	.	.
16B-\JJ	.	.
*Xrep	*	*
*rep	*	*
!	!LO:SIC:o:s=:v:znak powt. gr.	!
16E-\LL	.	.
16B-\	.	.
16G\	16cc\LL	.
16B-\JJ	16dd\JJ	.
*Xrep	*	*
=6	=6	=6
4E-\	(8.ee-\L	.
.	16ff\Jk)	.
8r	(16gg\LL	.
.	16aa-\J)	.
8E-\L	8aa-T\J	.
!	!	!LO:DY:t=pia
8G\	8.bb-\L	p
8E-\J	.	.
.	16gg\Jk	.
=7	=7	=7
16BB-\LL	(16ff\LL	f
16F\	16een\	.
16D\	16ff\	.
16F\JJ	16dd\JJ)	.
*rep	*	*
!	!LO:SIC:o:s=:v:znak powt. gr.	!
16BB-\LL	(4.b-\	.
16F\	.	.
16D\	.	.
16F\JJ	.	.
*Xrep	*	*
*rep	*	*
!	!LO:SIC:o:s=:v:znak powt. gr.	!
16BB-\LL	.	.
16F\	.	.
16D\	8cc\)	.
16F\JJ	.	.
*Xrep	*	*
=8	=8	=8
4BB-/	8.dd\L	.
.	16ee-\Jk	.
4B-\	8ff\L	.
.	16gg\L	.
.	16aa-\JJ	p
4r	(16bb-\LL	.
.	16aa-\	.
.	16gg\	.
.	16aa-\JJ)	.
=9	=9	=9
.	8qqgg/	f
8E-\L	4.bb-\	.
8e-\J	.	.
4E-\	.	.
.	8gg\L 8bb-\	.
4r	8ff\ 8aa-\	p
.	8ee-\J 8gg\	.
!!LO:LB:g=original
=10	=10	=10
4AA-/ 4A-/	(8.ccc\L	f
.	16bb-\Jk)	.
8r	(16aa-\LL	p
.	16gg\	.
!LO:TX:a:t=P:problem:mixed beam	!	!
8A-\L	16ff\	.
.	16gg\JJ)	.
8AA-/	4ff\	.
8A-\J	.	.
=11	=11	=11
4BB-/	8b-\ 8ff\	.
.	4b-\ 4ff\	.
4B-\	.	f
.	16gg\LL	.
.	16ff\JJ	.
4d\	16ee-\LL	.
.	16dd\	.
.	16cc\	.
.	16b-\JJ	.
=12	=12	=12
.	(>8qb-/	.
4e-\	8.bb-\L	.
.	16aa-\Jk)	.
8r	8gg'\L	.
8B-\	8ff'\J	.
4E-\	4ee-\	.
*>B	*>B	*
=:|!|:13;	=:|!|:13;	=:|!|:13
*tremolo	*	*
*2\right	*2\right	*
!LO:TX:a:t=P:problem:mixed beam	!	!
8BB-L/	4dd\ 4ff\	.
8B-\	.	.
8BB-/	4.ee-\ 4.gg-X\	.
8B-\	.	.
8BB-/	.	.
8B-J\	8cc\ 8ee-\	.
=14	=14	=14
!LO:TX:a:t=P:problem:mixed beam	!	!
8BB-/L	8dd\L 8ff\	.
8B-\	8dd\J 8ff\	.
.	8qqb-/	.
8BB-/	4.bb-\	.
8B-\	.	.
8BB-/	.	.
8B-\J	8aa-X\	.
!!LO:LB:g=original
=15	=15	=15
!LO:TX:a:t=P:problem:mixed beam	!	!
.	8qaa-/	.
8BB-/L	8gg\	.
8B-\	4gg\	.
8BB-/	.	.
8B-\	16ff\LL	.
.	16gg\JJ	.
.	8qff/	.
8BB-/	(8.aa-\L	.
8B-\J	.	.
.	16gg\Jk)	.
*Xtremolo	*	*
=16	=16	=16
!LO:TX:a:t=P:problem:mixed beam	!	!
.	8qdd/	.
8BB-/L	8gg\L	.
8B-\J	8ff\J	.
4BB-/	16ff\LL	.
.	16b-\	.
.	16cc\	.
.	16dd\JJ	.
4r	16ee-\LL	.
.	16ff\	.
.	16gg\	.
.	16aa-\JJ	.
=17	=17	=17
!LO:TX:a:t=P:problem:mixed beam	!	!
16EE-/LL	4.ee-\ 4.gg\ 4.bb-\	f
16E-\	.	.
16D\	.	.
16E-\JJ	.	.
4EE-/	.	.
.	8gg\L 8bb-\	.
4r	8ff\ 8aa-\	p
.	8ee-\J 8gg\	.
=18	=18	=18
!LO:TX:a:t=P:problem:mixed beam	!	!
16EE-/LL	4.b-/ 4.gg/	f
16E-\	.	.
16D\	.	.
16E-\JJ	.	.
4EE-/	.	.
.	8b-\L 8gg\	p
4r	8a-\ 8ff\	.
.	8g\J 8ee-\	.
=19	=19	=19
4AA-/	(16dd\LL	.
.	16cc\JJ)	.
.	4cc`\	.
4A-\	.	.
.	(16aa-\LL	.
.	16gg\JJ)	.
8r	(8.ff\L	.
8A-\	.	.
.	16ee-\Jk)	.
=20	=20	=20
4B-\	16dd\LL	.
.	16ee-\	.
.	16cc\	.
.	16dd\JJ	.
!	!LO:SIC:o:s=:v:2\right&colon;global	!
.	8qqdd/	.
8r	2ee-\	.
8BB-/	.	.
4E-\	.	.
!!LO:PB:g=original
*>C	*>C	*>C
=:|!|:21	=:|!|:21	=:|!|:21
*k[e-b-a-]	*k[e-b-a-]	*
*M3/4	*M3/4	*
!	!LO:TX:rj:t=Trio	!
8r	8ggt\	.
8E-\ 8G\ 8B-\	4bb-\	.
8E-\L 8G\ 8B-\	.	.
8E-\J 8G\ 8B-\	16gg\LL	.
.	16ee-\JJ	.
8D\L 8F\ 8B-\	16dd\LL	.
.	16ff\	.
8D\J 8F\ 8B-\	16b-\	.
.	16dd\JJ	.
=22	=22	=22
8r	8ee-\	.
!	!	!LO:DY:a
8E-\L 8G\ 8B-\	4g\ 4ee-\	f
8E-\ 8G\ 8B-\	.	.
8E-\J 8G\ 8B-\	16gg\LL	.
.	16ee-\JJ	.
8D\L 8F\ 8B-\	8.ff\L	.
8D\J 8F\ 8B-\	.	.
.	16aa-\Jk	.
=23	=23	=23
8r	8ggt\	.
8E-\L 8G\ 8B-\	4bb-\	.
8E-\ 8G\ 8B-\	.	.
8E-\J 8G\ 8B-\	16gg\LL	.
.	16ee-\JJ	.
8D\L 8F\ 8B-\	16dd\LL	.
.	16ff\	.
8D\J 8F\ 8B-\	16b-\	.
.	16dd\JJ	.
!!LO:LB:g=original
=24	=24	=24
4E-\	16ee-\LL	.
.	16gg\	.
.	16ee-\	.
.	16gg\JJ	.
!LO:TX:a:t=P:problem:mixed beam	!	!
8B-\L	16ff\LL	.
.	16aa-\	.
8BB-/J	16dd\	.
.	16ff\JJ	.
4E-\	4ee-\	.
*>D	*>D	*>D
=:|!|:25	=:|!|:25	=:|!|:25
4BB-/	8.b-\L	.
.	16cc\Jk	.
4B-\	8b-\L 8dd\	.
.	8cc\ 8ee-\	.
4r	8dd\ 8ff\	.
.	8ee-\J 8gg-X\	.
=26	=26	=26
!LO:TX:a:t=P:problem:mixed beam	!	!LO:DY:rj
8BB-/L	4.b-\ 4.dd\ 4.ff\	f
8B-\J	.	.
4BB-/	.	.
.	8gg-X\L 8bb-\	.
4r	8ff\ 8aa-\	.
.	8gg-\J	.
=27	=27	=27
4BB-/	8.dd\L 8.ff\	.
.	16cc\Jk 16ee-\	.
4B-\	8b-\L 8dd\	.
.	8cc\ 8ee-\	.
4r	8dd\ 8ff\	.
.	8ee-\J 8gg\	.
!!LO:LB:g=original
=28	=28	=28
!LO:TX:a:t=P:problem:mixed beam	!	!
8BB-\L	(8dd\L 8ff\	.
8B-\J	8bb-\J)	.
4BB-/	(4.b-\ 4.bb-\	f
4r	.	.
*	*Xtuplet	*
.	24aa-\LL	p
.	24gg\)	.
.	24aa-\JJ	.
=||	=||	=||
*-	*-	*-
!!!system-decoration: {(s1,s2)}
!!!RDF**kern: > = above
!!!RDF**kern: < = below
!!!EED: Leszek Kubiak
!!!EST: 2020-07=22
!!!AIN: 1 piano
!!!ENC: Andrzej Borzym
!!!END: 2020-06-02
